X:1
T:Compliments to Hughena Ratchford
R:reel
C:Brenda Stubbert
O:20th Century Cape Breton
D:Buddy MacMaster, The Judique Flyer
Z:Paul Stewart Cranford (P.S.C.), <http://www.cranfordpub.com>
Q:333
L:1/8
M:C|
K:A
a|eAcB A/A/A ce|fBdc Bcdf|eAcB A/A/A ce|faea cAA:|
||g|aece aece|fBBc defg|aece aece|d2Bd cAAg|
aece aece|fBBc defg|agfe (f/g/a) ec|d2Bd cAA|]
% if none of this makes sense, go to http://www.cranfordpub.com/tunes/abcs
